X: 30
T: Acemkürdî Aranağme (Senginsemâî)
C: ?
O: Turkey
F: http://compmusic.upf.edu/node/140
N: acemkurdi--aranagme--senginsemai--1--
N: makam= acemkurdi
N: form= aranagme
N: usul= senginsemai = 6/4
M: 6/4
L: 1/16
K: C _B   
Q: 1/4=78
%%MIDI tuningsystem comma53
A4 c4 f4 e2g2 f8  | b3a g3f e3d d2ed c8  | \
w:  ARANAĞME  |   | 
c4 d3c d2e2 (3f2g2a2 b8  | 
w:   | 
a3g f3e d4 e2gf f8  | f4 e4 f4 g2fe e6d2  | \
w:   |   | 
d6c2 c2dc B2A2 B8  | 
w:   | 
A4 B4 B3A G4 A2B2 c2BA  | A8 z4 B2c2 A8  | \
w:   |   | 
A4 c4 f4 e2g2 f8  | 
w:  ARANAĞME  | 
b3a g3f e3d d2ed c8  | c4 d3c d2e2 (3f2g2a2 b8  | \
w:   |   | 
a3g f3e d4 e2gf f8  | 
w:   | 
f4 e4 f4 g2fe e6d2  | d6c2 c2dc B2A2 B8  | \
w:   |   | 
A4 B4 B3A G4 A2B2 c2BA  | 
w:   | 
A8 z4 B2c2 A8  | |


